!!!OTL@@FUR: Ti ricuardistu, ninie  
!!!OTL@IT: Ti ricordi, cara
!!!OTL@EN: Do you remember, my dear?
**kern
*clefG2
*k[b-]
*F:
*M3/4
*MM140
*>[A]
*>A
4a
4b-
=1
2cc
4c
=2
4cc
4ff
4ee
=3
4dd
4dd
4dd
=4
4dd
4b-
4cc
=5
2dd
4dd
=6
4dd
4.ee
8dd
=7
4dd
4cc
4cc
=8
4cc
8ff
8r
8r
8a
=9
4cc
4b-
8r
8b-
4b-
4cc
4b-
=10
[2.a
=11
2a]
4r
4r
==
*-
!!!ARE: Friui
!!!ENC: Kelly Leistikow
!!!END: 2002/22/02
!!!ref: @{OTL@@FUR}/@{OTL@EN}
